X:39
T: Ritter und Magd
N: Q0055l
O: Mitteleuropa, Deutschland (BRD) , Nord - Bayern
R: Ballade, Betrug, Schwangerschaft, Tod, Selbstmord, Herr und Magd
M: 6/8
L: 1/8
K: F
c | A2cc2d | c2cf2
c | d2efed | d3c2
A | B2dc2B | A2fc2
A | G2dc2A | G3F2

